X: 7827
T: Comfy Crane, The
R: jig
M: 6/8
K: Gminor
|:DGA BAG|AcA F2D|EGB B(3c/B/A/G|BAG ^F2D|
DGA BAG|AcA F2D|C2d ^cde|1 dcA G3:|2 dcA G(3A/B/c/d||
|:dcc cBB|BAA ABc|cBB BAG|A2A ABc|
dcc cBB|BAA ABc|D2d ^cde|1 dcA G(3A/B/c/d:|2 dcA G2D||

